assets/img/ods/SDG-8.svg

<svg width="720" height="720" viewBox="0 0 720 720" fill="none" xmlns="http://www.w3.org/2000/svg">
<g clip-path="url(#clip0_342_72)">
<path d="M-1.08008 -1.08002H721.08V721.08H-1.08008V-1.08002Z" fill="#BBBBBB"/>
<path d="M55.1202 159C55.2902 144.21 60.5602 132.48 71.2702 127C63.7902 121.56 57.5002 112 57.1602 96.74C56.8202 74 68.7202 60 92.0002 60C115.28 60 127 74.11 126.51 96.72C126.17 112.19 120.22 121.72 112.74 126.98C123.28 132.42 128.74 144.15 128.89 158.98C129.4 184.14 119.37 201.48 92.0002 201.48C64.8102 201.47 55.0002 184.13 55.1202 159ZM103.06 160.7C103.23 149.7 101.87 138.6 92.0602 138.6C82.3702 138.6 80.8402 149.65 80.8402 160.7C80.7902 170 82.0002 181.92 92.0002 181.92C102 181.92 103.06 169.85 103.06 160.67V160.7ZM101.7 95.9C101.7 86.38 98.6402 79.75 92.0102 79.75C85.2102 79.75 82.0102 86.38 82.0102 95.9C82.0102 109.16 84.9002 117.15 92.0102 117.15C99.0002 117.15 101.7 109.16 101.7 95.9ZM186.22 68.71H177.84V61.63H204V68.71H195.81V114.28H186.19L186.22 68.71ZM207.15 61.63H219.83C230.36 61.63 236.34 65.01 236.34 75.63C236.34 81.94 234.78 86.36 229.84 88.37L237.18 114.31H227.56L221.26 90.19H216.71V114.31H207.15V61.63ZM219.76 84.18C225.29 84.18 227.3 81.78 227.3 76.12C227.3 70.79 225.81 68.19 220.3 68.19H216.73V84.19L219.76 84.18ZM249.79 61.63H260.06L270.59 114.28H261.69L259.61 102.12H250.44L248.3 114.28H239.3L249.79 61.63ZM258.57 96L255 73.91L251.42 96H258.57ZM274.17 61.63H287.17C296.4 61.63 302.57 64.75 302.57 75.15C302.57 81.58 299.91 85.15 294.97 85.94C301.14 87.11 304.07 91.53 304.07 98.94C304.07 109.01 299.13 114.28 289.38 114.28H274.17V61.63ZM287 83.14C292.72 83.14 294.21 80.61 294.21 75.28C294.21 69.69 291.48 68.28 285.63 68.28H283.68V83.14H287ZM287.39 107.52C293.24 107.52 294.86 104.79 294.86 98.87C294.86 92.63 292.78 89.77 287.06 89.77H283.68V107.52H287.39ZM316.48 61.63H326.75L337.28 114.28H328.38L326.3 102.12H317.13L315 114.28H306L316.48 61.63ZM325.26 96L321.68 73.9L318.11 96H325.26ZM340.86 61.63H350.41V107.71H363.22V114.28H340.86V61.63ZM366.66 61.63H376.22V83.63H386.94V61.63H396.56V114.28H386.94V90.49H376.22V114.28H366.66V61.63ZM402.08 97.77V78C402.08 67.34 405.98 61 417.3 61C428.62 61 432.44 67.31 432.44 78V97.77C432.44 108.36 428.54 114.99 417.3 114.99C406.06 114.99 402.08 108.43 402.08 97.77ZM422.69 100V75.8C422.69 71.38 421.98 68.06 417.3 68.06C412.62 68.06 411.84 71.38 411.84 75.8V100C411.84 104.36 412.55 107.87 417.3 107.87C422.05 107.87 422.69 104.4 422.69 100ZM451.94 61.63H464.35C477.16 61.63 481.06 66.76 481.06 78.01V97.18C481.06 108.75 477.06 114.28 464.74 114.28H451.94V61.63ZM464.48 107.58C471.05 107.58 471.31 104.07 471.31 97.51V77.36C471.31 71.05 470.66 68.45 464.31 68.45H461.45V107.58H464.48ZM486.45 61.63H508.55V68.39H496V83.53H505.88V90.23H496V107.71H508.67V114.28H486.45V61.63ZM511.74 97.44V78.66C511.74 67.87 515.18 61.04 526.74 61.04C537.54 61 541 67 541 76.19V80.61H531.77V76.06C531.77 71.64 531.7 68.06 526.83 68.06C521.96 68.06 521.43 71.83 521.43 76.64V99.46C521.43 105.18 522.6 107.91 526.83 107.91C531.57 107.91 531.77 104.2 531.77 99.52V94.78H541V99C541 108.3 537.88 115 526.76 115C515.18 115 511.74 107.71 511.74 97.44ZM546 61.63H568.1V68.39H555.55V83.53H565.43V90.23H555.55V107.71H568.22V114.28H546V61.63ZM572.12 61.63H578.82L591.62 91.63V61.63H599.55V114.28H593.18L580.31 82.82V114.28H572.12V61.63ZM611.12 68.71H602.74V61.63H628.93V68.71H620.74V114.28H611.12V68.71ZM632.05 61.63H654.15V68.39H641.61V83.53H651.49V90.23H641.61V107.71H654.28V114.28H632.05V61.63ZM181 147.63H203.1V154.39H190.51V169.53H200.39V176.23H190.51V193.71H203.19V200.28H181V147.63ZM220.35 183.44V164.66C220.35 153.87 223.79 147.04 235.35 147.04C246.14 147.04 249.59 153.04 249.59 162.19V166.61H240.36V162.06C240.36 157.64 240.29 154.06 235.42 154.06C230.55 154.06 230.02 157.83 230.02 162.64V185.46C230.02 191.18 231.19 193.91 235.42 193.91C240.16 193.91 240.36 190.2 240.36 185.52V180.78H249.59V185C249.59 194.3 246.47 201 235.35 201C223.79 201 220.35 193.71 220.35 183.44ZM254.6 147.63H267.28C277.81 147.63 283.79 151.01 283.79 161.63C283.79 167.94 282.23 172.36 277.29 174.37L284.63 200.31H275L268.7 176.19H264.15V200.31H254.6V147.63ZM267.21 170.18C272.74 170.18 274.75 167.78 274.75 162.12C274.75 156.79 273.26 154.19 267.75 154.19H264.18V170.19L267.21 170.18ZM289.38 147.63H311.48V154.39H298.93V169.53H308.81V176.23H298.93V193.71H311.61V200.28H289.38V147.63ZM314.21 184.94L322.46 183.31C322.72 189.55 324.22 193.58 328.46 193.58C331.52 193.58 332.82 191.5 332.82 188.64C332.82 184.09 330.48 181.56 327.03 178.57L320.4 172.78C316.63 169.53 314.29 165.89 314.29 160.04C314.29 151.72 319.49 147.04 327.88 147.04C337.76 147.04 340.55 153.67 341.07 161.34L332.82 162.77C332.62 157.83 331.91 154.13 327.68 154.13C324.82 154.13 323.26 156.27 323.26 159.07C323.26 162.64 324.76 164.59 327.55 167L334.12 172.78C338.41 176.49 341.98 181.1 341.98 188.06C341.98 195.66 336.65 200.99 328.79 200.99C319.15 201 314.6 195.4 314.21 184.94ZM345.08 183.44V164.66C345.08 153.87 348.53 147.04 360.08 147.04C370.87 147.04 374.31 153.04 374.31 162.19V166.61H365.1V162.06C365.1 157.64 365.04 154.06 360.16 154.06C355.28 154.06 354.77 157.83 354.77 162.64V185.46C354.77 191.18 355.94 193.91 360.16 193.91C364.91 193.91 365.1 190.2 365.1 185.52V180.78H374.33V185C374.33 194.3 371.21 201 360.1 201C348.53 201 345.08 193.71 345.08 183.44ZM379.6 147.63H389.09V200.28H379.6V147.63ZM396.3 147.63H406.24L413.72 184.09L421.46 147.63H431.14L432.14 200.28H425L424.22 163.68L416.74 200.28H410.96L403.35 163.55L402.63 200.28H395.42L396.3 147.63ZM438.22 147.63H460.33V154.39H447.78V169.53H457.66V176.23H447.78V193.71H460.46V200.28H438.22V147.63ZM464.35 147.63H471.05L483.85 177.63V147.63H491.78V200.28H485.41L472.54 168.82V200.28H464.35V147.63ZM503.35 154.71H495V147.63H521.19V154.71H513V200.28H503.38L503.35 154.71ZM523.18 183.77V164C523.18 153.34 527.08 147 538.39 147C549.7 147 553.53 153.31 553.53 164V183.76C553.53 194.35 549.63 200.98 538.39 200.98C527.15 200.98 523.18 194.43 523.18 183.77ZM543.78 186.04V161.8C543.78 157.38 543.07 154.06 538.39 154.06C533.71 154.06 532.93 157.38 532.93 161.8V186C532.93 190.36 533.64 193.87 538.39 193.87C543.14 193.87 543.78 190.4 543.78 186V186.04ZM181 233.63H203.1V240.39H190.51V255.53H200.39V262.23H190.51V279.71H203.19V286.28H181V233.63ZM206.24 269.44V250.66C206.24 239.87 209.69 233.04 221.24 233.04C232.03 233.04 235.47 239.04 235.47 248.19V252.61H226.24V248.06C226.24 243.64 226.18 240.06 221.3 240.06C216.42 240.06 215.91 243.83 215.91 248.64V271.46C215.91 277.18 217.08 279.91 221.3 279.91C226.05 279.91 226.24 276.2 226.24 271.52V266.78H235.47V271C235.47 280.3 232.35 287 221.24 287C209.69 287 206.24 279.71 206.24 269.44ZM239.65 269.77V250C239.65 239.34 243.55 233 254.86 233C266.17 233 270 239.35 270 250V269.76C270 280.35 266.1 286.98 254.85 286.98C243.6 286.98 239.65 280.43 239.65 269.77ZM260.26 272V247.8C260.26 243.38 259.54 240.06 254.86 240.06C250.18 240.06 249.4 243.38 249.4 247.8V272C249.4 276.36 250.12 279.87 254.86 279.87C259.6 279.87 260.26 276.4 260.26 272ZM275.4 233.63H282.1L294.9 263.63V233.63H302.83V286.28H296.46L283.59 254.82V286.28H275.4V233.63ZM308.29 269.77V250C308.29 239.34 312.19 233 323.5 233C334.81 233 338.65 239.31 338.65 250V269.76C338.65 280.35 334.75 286.98 323.5 286.98C312.25 286.98 308.29 280.43 308.29 269.77ZM319.47 217.51H327.4L333.4 229.51H326.84L323.46 221.71L320.14 229.51H313.64L319.47 217.51ZM328.9 272V247.8C328.9 243.38 328.18 240.06 323.5 240.06C318.82 240.06 318 243.38 318 247.8V272C318 276.36 318.72 279.87 323.46 279.87C328.2 279.87 328.9 276.4 328.9 272ZM344.82 233.63H354.77L362.24 270.09L370 233.63H379.68L380.68 286.28H373.53L372.75 249.68L365.27 286.28H359.49L351.88 249.55L351.17 286.28H343.95L344.82 233.63ZM387 233.63H396.49V286.28H387V233.63ZM402.09 269.44V250.66C402.09 239.87 405.53 233.04 417.09 233.04C427.88 233.04 431.33 239.04 431.33 248.19V252.61H422.1V248.06C422.1 243.64 422.03 240.06 417.16 240.06C412.29 240.06 411.76 243.83 411.76 248.64V271.46C411.76 277.18 412.93 279.91 417.16 279.91C421.9 279.91 422.1 276.2 422.1 271.52V266.78H431.33V271C431.33 280.3 428.21 287 417.09 287C405.53 287 402.09 279.71 402.09 269.44ZM435.5 269.77V250C435.5 239.34 439.4 233 450.71 233C462.02 233 465.85 239.31 465.85 250V269.76C465.85 280.35 461.95 286.98 450.71 286.98C439.47 286.98 435.5 280.43 435.5 269.77ZM456.1 272V247.8C456.1 243.38 455.39 240.06 450.71 240.06C446.03 240.06 445.25 243.38 445.25 247.8V272C445.25 276.36 445.96 279.87 450.71 279.87C455.46 279.87 456.1 276.4 456.1 272ZM495.49 377.11L422.26 446.78C419.49 449.53 418.08 451.55 418.08 457.24V652.49C418.082 653.038 418.191 653.58 418.401 654.085C418.612 654.59 418.921 655.049 419.309 655.436C419.697 655.822 420.157 656.128 420.664 656.336C421.17 656.545 421.713 656.651 422.26 656.65H497.9C499.004 656.65 500.064 656.212 500.845 655.432C501.627 654.652 502.068 653.594 502.07 652.49V378.87C502.07 376.57 500.27 372.36 495.49 377.11ZM284.52 467.88L211.27 537.53C208.52 540.29 207.1 542.31 207.1 547.98V652.49C207.106 653.593 207.547 654.65 208.328 655.429C209.109 656.209 210.167 656.647 211.27 656.65H286.92C288.025 656.65 289.086 656.212 289.869 655.433C290.652 654.653 291.095 653.595 291.1 652.49V469.62C291.1 467.32 289.28 463.1 284.52 467.88Z" fill="white"/>
<path d="M528.78 292.63C528.792 292.337 528.742 292.045 528.633 291.773C528.525 291.501 528.36 291.254 528.15 291.05C527.786 290.696 527.307 290.483 526.8 290.45H525.8L469.72 303.1L468.72 303.21C468.311 303.295 467.934 303.493 467.63 303.78C467.237 304.18 467.017 304.719 467.017 305.28C467.017 305.841 467.237 306.38 467.63 306.78L468.26 307.41L481.07 320.21L354 447.36L295.3 388.67C295.145 388.511 294.959 388.384 294.754 388.298C294.549 388.211 294.328 388.167 294.105 388.167C293.883 388.167 293.662 388.211 293.457 388.298C293.252 388.384 293.066 388.511 292.91 388.67L277 404.59L182.9 498.67C182.588 498.989 182.414 499.418 182.414 499.865C182.414 500.312 182.588 500.74 182.9 501.06L198.85 517C199.006 517.156 199.19 517.28 199.394 517.365C199.597 517.45 199.815 517.493 200.035 517.493C200.256 517.493 200.474 517.45 200.677 517.365C200.881 517.28 201.065 517.156 201.22 517L294.12 424.12L336.71 466.71C336.746 466.782 336.789 466.849 336.84 466.91L352.77 482.82C352.926 482.979 353.112 483.106 353.317 483.192C353.522 483.279 353.743 483.323 353.965 483.323C354.188 483.323 354.409 483.279 354.614 483.192C354.819 483.106 355.005 482.979 355.16 482.82L499.37 338.61L512.82 352.05C513.109 352.339 513.475 352.537 513.874 352.623C514.273 352.708 514.688 352.675 515.069 352.529C515.45 352.383 515.78 352.13 516.02 351.8C516.26 351.47 516.399 351.077 516.42 350.67V350.49L528.73 293.25L528.78 292.63Z" fill="white"/>
<path d="M390.42 480.1L355 515.83C354.676 516.101 354.264 516.241 353.843 516.224C353.421 516.208 353.021 516.035 352.72 515.74L320.6 483C314.72 477.14 313.46 481.89 313.46 484.19V652.48C313.457 653.026 313.562 653.567 313.769 654.072C313.976 654.577 314.28 655.037 314.665 655.424C315.049 655.811 315.507 656.119 316.01 656.329C316.514 656.54 317.054 656.649 317.6 656.65H393.27C394.373 656.645 395.43 656.203 396.209 655.422C396.989 654.641 397.427 653.583 397.43 652.48V481.42C397.43 479.12 395.62 474.9 390.43 480.1" fill="white"/>
</g>
<defs>
<clipPath id="clip0_342_72">
<rect width="720" height="720" fill="white"/>
</clipPath>
</defs>
</svg>

<svg xmlns="http://www.w3.org/2000/svg" viewBox="0 0 720 720"><defs><style>.cls-2{fill:#fff}</style></defs><path fill="#a21942" d="M-1.08-1.08h722.16v722.16H-1.08z" id="goal_background" data-name="goal background"/><g id="ENG_text_graphics" data-name="ENG text &amp; graphics"><path class="cls-2" d="M55.12 159c.17-14.79 5.44-26.52 16.15-32-7.48-5.44-13.77-15-14.11-30.26C56.82 74 68.72 60 92 60s35 14.11 34.51 36.72c-.34 15.47-6.29 25-13.77 30.26 10.54 5.44 16 17.17 16.15 32 .51 25.16-9.52 42.5-36.89 42.5-27.19-.01-37-17.35-36.88-42.48zm47.94 1.7c.17-11-1.19-22.1-11-22.1-9.69 0-11.22 11.05-11.22 22.1C80.79 170 82 181.92 92 181.92s11.06-12.07 11.06-21.25zm-1.36-64.8c0-9.52-3.06-16.15-9.69-16.15-6.8 0-10 6.63-10 16.15 0 13.26 2.89 21.25 10 21.25 6.99 0 9.69-7.99 9.69-21.25zM186.22 68.71h-8.38v-7.08H204v7.08h-8.19v45.57h-9.62zM207.15 61.63h12.68c10.53 0 16.51 3.38 16.51 14 0 6.31-1.56 10.73-6.5 12.74l7.34 25.94h-9.62l-6.3-24.12h-4.55v24.12h-9.56zm12.61 22.55c5.53 0 7.54-2.4 7.54-8.06 0-5.33-1.49-7.93-7-7.93h-3.57v16zM249.79 61.63h10.27l10.53 52.65h-8.9l-2.08-12.16h-9.17l-2.14 12.16h-9zM258.57 96L255 73.91 251.42 96zM274.17 61.63h13c9.23 0 15.4 3.12 15.4 13.52 0 6.43-2.66 10-7.6 10.79 6.17 1.17 9.1 5.59 9.1 13 0 10.07-4.94 15.34-14.69 15.34h-15.21zM287 83.14c5.72 0 7.21-2.53 7.21-7.86 0-5.59-2.73-7-8.58-7h-1.95v14.86zm.39 24.38c5.85 0 7.47-2.73 7.47-8.65 0-6.24-2.08-9.1-7.8-9.1h-3.38v17.75zM316.48 61.63h10.27l10.53 52.65h-8.9l-2.08-12.16h-9.17L315 114.28h-9zM325.26 96l-3.58-22.1-3.57 22.1zM340.86 61.63h9.55v46.08h12.81v6.57h-22.36zM366.66 61.63h9.56v22h10.72v-22h9.62v52.65h-9.62V90.49h-10.72v23.79h-9.56zM402.08 97.77V78c0-10.66 3.9-17 15.22-17s15.14 6.31 15.14 17v19.77c0 10.59-3.9 17.22-15.14 17.22s-15.22-6.56-15.22-17.22zm20.61 2.23V75.8c0-4.42-.71-7.74-5.39-7.74s-5.46 3.32-5.46 7.74V100c0 4.36.71 7.87 5.46 7.87s5.39-3.47 5.39-7.87zM451.94 61.63h12.41c12.81 0 16.71 5.13 16.71 16.38v19.17c0 11.57-4 17.1-16.32 17.1h-12.8zm12.54 45.95c6.57 0 6.83-3.51 6.83-10.07V77.36c0-6.31-.65-8.91-7-8.91h-2.86v39.13zM486.45 61.63h22.1v6.76H496v15.14h9.88v6.7H496v17.48h12.67v6.57h-22.22zM511.74 97.44V78.66c0-10.79 3.44-17.62 15-17.62C537.54 61 541 67 541 76.19v4.42h-9.23v-4.55c0-4.42-.07-8-4.94-8s-5.4 3.77-5.4 8.58v22.82c0 5.72 1.17 8.45 5.4 8.45 4.74 0 4.94-3.71 4.94-8.39v-4.74H541V99c0 9.3-3.12 16-14.24 16-11.58 0-15.02-7.29-15.02-17.56zM546 61.63h22.1v6.76h-12.55v15.14h9.88v6.7h-9.88v17.48h12.67v6.57H546zM572.12 61.63h6.7l12.8 30v-30h7.93v52.65h-6.37l-12.87-31.46v31.46h-8.19zM611.12 68.71h-8.38v-7.08h26.19v7.08h-8.19v45.57h-9.62zM632.05 61.63h22.1v6.76h-12.54v15.14h9.88v6.7h-9.88v17.48h12.67v6.57h-22.23zM181 147.63h22.1v6.76h-12.59v15.14h9.88v6.7h-9.88v17.48h12.68v6.57H181zM220.35 183.44v-18.78c0-10.79 3.44-17.62 15-17.62 10.79 0 14.24 6 14.24 15.15v4.42h-9.23v-4.55c0-4.42-.07-8-4.94-8s-5.4 3.77-5.4 8.58v22.82c0 5.72 1.17 8.45 5.4 8.45 4.74 0 4.94-3.71 4.94-8.39v-4.74h9.23V185c0 9.3-3.12 16-14.24 16-11.56 0-15-7.29-15-17.56zM254.6 147.63h12.68c10.53 0 16.51 3.38 16.51 14 0 6.31-1.56 10.73-6.5 12.74l7.34 25.94H275l-6.3-24.12h-4.55v24.12h-9.55zm12.61 22.55c5.53 0 7.54-2.4 7.54-8.06 0-5.33-1.49-7.93-7-7.93h-3.57v16zM289.38 147.63h22.1v6.76h-12.55v15.14h9.88v6.7h-9.88v17.48h12.68v6.57h-22.23zM314.21 184.94l8.25-1.63c.26 6.24 1.76 10.27 6 10.27 3.06 0 4.36-2.08 4.36-4.94 0-4.55-2.34-7.08-5.79-10.07l-6.63-5.79c-3.77-3.25-6.11-6.89-6.11-12.74 0-8.32 5.2-13 13.59-13 9.88 0 12.67 6.63 13.19 14.3l-8.25 1.43c-.2-4.94-.91-8.64-5.14-8.64-2.86 0-4.42 2.14-4.42 4.94 0 3.57 1.5 5.52 4.29 7.93l6.57 5.78c4.29 3.71 7.86 8.32 7.86 15.28 0 7.6-5.33 12.93-13.19 12.93-9.64.01-14.19-5.59-14.58-16.05zM345.08 183.44v-18.78c0-10.79 3.45-17.62 15-17.62 10.79 0 14.23 6 14.23 15.15v4.42h-9.21v-4.55c0-4.42-.06-8-4.94-8s-5.39 3.77-5.39 8.58v22.82c0 5.72 1.17 8.45 5.39 8.45 4.75 0 4.94-3.71 4.94-8.39v-4.74h9.23V185c0 9.3-3.12 16-14.23 16-11.57 0-15.02-7.29-15.02-17.56zM379.6 147.63h9.49v52.65h-9.49zM396.3 147.63h9.94l7.48 36.46 7.74-36.46h9.68l1 52.65H425l-.78-36.6-7.48 36.6h-5.78l-7.61-36.73-.72 36.73h-7.21zM438.22 147.63h22.11v6.76h-12.55v15.14h9.88v6.7h-9.88v17.48h12.68v6.57h-22.24zM464.35 147.63h6.7l12.8 30v-30h7.93v52.65h-6.37l-12.87-31.46v31.46h-8.19zM503.35 154.71H495v-7.08h26.19v7.08H513v45.57h-9.62zM523.18 183.77V164c0-10.66 3.9-17 15.21-17s15.14 6.31 15.14 17v19.76c0 10.59-3.9 17.22-15.14 17.22s-15.21-6.55-15.21-17.21zm20.6 2.27V161.8c0-4.42-.71-7.74-5.39-7.74s-5.46 3.32-5.46 7.74V186c0 4.36.71 7.87 5.46 7.87s5.39-3.47 5.39-7.87zM181 233.63h22.1v6.76h-12.59v15.14h9.88v6.7h-9.88v17.48h12.68v6.57H181zM206.24 269.44v-18.78c0-10.79 3.45-17.62 15-17.62 10.79 0 14.23 6 14.23 15.15v4.42h-9.23v-4.55c0-4.42-.06-8-4.94-8s-5.39 3.77-5.39 8.58v22.82c0 5.72 1.17 8.45 5.39 8.45 4.75 0 4.94-3.71 4.94-8.39v-4.74h9.23V271c0 9.3-3.12 16-14.23 16-11.55 0-15-7.29-15-17.56zM239.65 269.77V250c0-10.66 3.9-17 15.21-17S270 239.35 270 250v19.76c0 10.59-3.9 17.22-15.15 17.22s-15.2-6.55-15.2-17.21zm20.61 2.23v-24.2c0-4.42-.72-7.74-5.4-7.74s-5.46 3.32-5.46 7.74V272c0 4.36.72 7.87 5.46 7.87s5.4-3.47 5.4-7.87zM275.4 233.63h6.7l12.8 30v-30h7.93v52.65h-6.37l-12.87-31.46v31.46h-8.19zM308.29 269.77V250c0-10.66 3.9-17 15.21-17s15.15 6.31 15.15 17v19.76c0 10.59-3.9 17.22-15.15 17.22s-15.21-6.55-15.21-17.21zm11.18-52.26h7.93l6 12h-6.56l-3.38-7.8-3.32 7.8h-6.5zM328.9 272v-24.2c0-4.42-.72-7.74-5.4-7.74s-5.5 3.32-5.5 7.74V272c0 4.36.72 7.87 5.46 7.87s5.44-3.47 5.44-7.87zM344.82 233.63h9.95l7.47 36.46 7.76-36.46h9.68l1 52.65h-7.15l-.78-36.6-7.48 36.6h-5.78l-7.61-36.73-.71 36.73h-7.22zM387 233.63h9.49v52.65H387zM402.09 269.44v-18.78c0-10.79 3.44-17.62 15-17.62 10.79 0 14.24 6 14.24 15.15v4.42h-9.23v-4.55c0-4.42-.07-8-4.94-8s-5.4 3.77-5.4 8.58v22.82c0 5.72 1.17 8.45 5.4 8.45 4.74 0 4.94-3.71 4.94-8.39v-4.74h9.23V271c0 9.3-3.12 16-14.24 16-11.56 0-15-7.29-15-17.56zM435.5 269.77V250c0-10.66 3.9-17 15.21-17s15.14 6.31 15.14 17v19.76c0 10.59-3.9 17.22-15.14 17.22s-15.21-6.55-15.21-17.21zm20.6 2.23v-24.2c0-4.42-.71-7.74-5.39-7.74s-5.46 3.32-5.46 7.74V272c0 4.36.71 7.87 5.46 7.87s5.39-3.47 5.39-7.87zM495.49 377.11l-73.23 69.67c-2.77 2.75-4.18 4.77-4.18 10.46v195.25a4.17 4.17 0 004.18 4.16h75.64a4.17 4.17 0 004.17-4.16V378.87c0-2.3-1.8-6.51-6.58-1.76M284.52 467.88l-73.25 69.65c-2.75 2.76-4.17 4.78-4.17 10.45v104.51a4.18 4.18 0 004.17 4.16h75.65a4.18 4.18 0 004.18-4.16V469.62c0-2.3-1.82-6.52-6.58-1.74"/><path class="cls-2" d="M528.78 292.63a2.09 2.09 0 00-.63-1.58 2.14 2.14 0 00-1.35-.6h-1l-56.08 12.65-1 .11a2.26 2.26 0 00-1.09.57 2.14 2.14 0 000 3l.63.63 12.81 12.8L354 447.36l-58.7-58.69a1.67 1.67 0 00-2.39 0L277 404.59l-94.1 94.08a1.71 1.71 0 000 2.39L198.85 517a1.67 1.67 0 002.37 0l92.9-92.88 42.59 42.59a1 1 0 00.13.2l15.93 15.91a1.67 1.67 0 002.39 0l144.21-144.21 13.45 13.44a2.11 2.11 0 003.6-1.38v-.18l12.31-57.24z"/><path class="cls-2" d="M390.42 480.1L355 515.83a1.7 1.7 0 01-2.28-.09L320.6 483c-5.88-5.86-7.14-1.11-7.14 1.19v168.29a4.15 4.15 0 004.14 4.17h75.67a4.18 4.18 0 004.16-4.17V481.42c0-2.3-1.81-6.52-7-1.32"/></g></svg>
